svgs/sharp-light/circle-arrow-up-left.svg

<svg xmlns="http://www.w3.org/2000/svg" viewBox="0 0 512 512"><!--! Font Awesome Pro 6.6.0 by @fontawesome - https://fontawesome.com License - https://fontawesome.com/license (Commercial License) Copyright 2024 Fonticons, Inc. --><path d="M256 32a224 224 0 1 1 0 448 224 224 0 1 1 0-448zm0 480A256 256 0 1 0 256 0a256 256 0 1 0 0 512zM176 160l-16 0 0 16 0 144 0 16 32 0 0-16 0-105.4L324.7 347.3 336 358.6 358.6 336l-11.3-11.3L214.6 192l97.4 0 16 0 0-32-16 0-136 0z"/></svg>

<svg xmlns="http://www.w3.org/2000/svg" viewBox="0 0 512 512"><!--! Font Awesome Pro 6.5.2 by @fontawesome - https://fontawesome.com License - https://fontawesome.com/license (Commercial License) Copyright 2024 Fonticons, Inc. --><path d="M256 32a224 224 0 1 1 0 448 224 224 0 1 1 0-448zm0 480A256 256 0 1 0 256 0a256 256 0 1 0 0 512zM176 160H160v16V320v16h32V320 214.6L324.7 347.3 336 358.6 358.6 336l-11.3-11.3L214.6 192H312h16V160H312 176z"/></svg>
